X: 1
T: Pine Needles  (C)
C: Pat Shaw
B: Pat Shaw's "Pinewoods, Between Two Ponds and Among the Pines" 1985
R: reel
Z: 2009 John Chambers <jc:trillian.mit.edu>
M: C|
L: 1/8
K: C
|: "C"G2G2 c2c2 | "G7"d2ed "C"c2c2 \
|1,3 "Em"g2g2 "Am"e2c2 | "Dm"f3e "G7"dcBA \
:|2,4 "Am"g2g2 "Dm"e2c2 | "G7"dcB2 "C"c4 :|
|: "C"g3a g2e2 | "F"dcde dcA2 \
|1,3 "C"g3a g2e2 | "Dm"dcde "G7"g4 \
:|2,4 "C"G2G2 c2e2 | "G7"dcd2 "C"c4 :|


%%sep 1 1 500

